tools/download-figma-icons/icons/outlined-medium/water-detector.svg

<svg width="24" height="24" viewBox="0 0 24 24" fill="none" xmlns="http://www.w3.org/2000/svg">
<path fill-rule="evenodd" clip-rule="evenodd" d="M21.1982 8.1H22.4597V1.5H21.1982V1.85475V7.74525V8.1ZM14.5659 4.91927C14.8502 4.92002 15.0887 5.05802 15.2244 5.29202C15.3602 5.52602 15.3594 5.81552 15.2229 6.04952L14.6664 6.99527H19.6982V2.60477H4.26169V6.99527H9.05869L9.62869 6.38627L9.38194 5.14577C9.32119 4.84577 9.44944 4.54052 9.70444 4.37252L11.4872 3.19877C11.6912 3.06452 11.9462 3.03827 12.1727 3.12602C12.3992 3.21452 12.5687 3.40802 12.6279 3.64502L12.9489 4.94102L14.5659 4.91927ZM1.50018 8.1H2.76168V7.74525V1.85475V1.5H1.50018V8.1ZM20.9102 0H22.7485C23.416 0 23.9597 0.54375 23.9597 1.2105V8.38875C23.9597 9.05625 23.416 9.6 22.7485 9.6H20.9102C20.2787 9.6 19.7642 9.11325 19.7095 8.49525H13.3562C13.0877 8.49525 12.8395 8.35125 12.7052 8.118C12.5717 7.88475 12.5732 7.5975 12.7097 7.36575L13.2557 6.43725L12.3745 6.44925C12.0122 6.42525 11.7197 6.21825 11.6357 5.87925L11.4265 5.034L10.951 5.3475L11.1745 6.471C11.2225 6.70875 11.152 6.954 10.987 7.13025L9.93174 8.25825C9.78924 8.40975 9.59124 8.49525 9.38349 8.49525H4.25124C4.19574 9.11325 3.68199 9.6 3.05049 9.6H1.21149C0.543244 9.6 0.000244141 9.05625 0.000244141 8.38875V1.2105C0.000244141 0.54375 0.543244 0 1.21149 0H3.05049C3.68199 0 4.19574 0.48825 4.25124 1.10475H19.7095C19.7642 0.48825 20.2787 0 20.9102 0ZM9.9679 16.0597C9.9679 17.1689 10.8709 18.0712 11.9802 18.0712C13.0894 18.0712 13.9917 17.1689 13.9917 16.0597C13.9917 15.4522 13.1959 13.9169 11.9802 12.1537C10.7464 13.9394 9.9679 15.4432 9.9679 16.0597ZM8.4679 16.0597C8.4679 14.7509 9.89365 12.4837 11.0899 10.8119C11.5017 10.2389 12.4602 10.2412 12.8697 10.8112C14.0652 12.4822 15.4917 14.7479 15.4917 16.0597C15.4917 17.9954 13.9159 19.5712 11.9802 19.5712C10.0437 19.5712 8.4679 17.9954 8.4679 16.0597ZM16.8889 13.2944C17.1821 13.0011 17.6562 13.0011 17.9494 13.2944C19.6197 14.9646 19.6197 17.6819 17.9494 19.3514C17.8032 19.4976 17.6112 19.5711 17.4192 19.5711C17.2271 19.5711 17.0352 19.4976 16.8889 19.3514C16.5956 19.0589 16.5956 18.5841 16.8889 18.2909C17.9734 17.2056 17.9734 15.4401 16.8889 14.3549C16.5956 14.0616 16.5956 13.5876 16.8889 13.2944ZM19.2934 10.9315C19.0002 11.2248 19.0002 11.6988 19.2934 11.992C20.4507 13.1485 21.0882 14.6868 21.0882 16.3225C21.0882 17.959 20.4507 19.4973 19.2934 20.6538C19.0002 20.947 19.0002 21.421 19.2934 21.7143C19.4397 21.8605 19.6317 21.934 19.8237 21.934C20.0157 21.934 20.2077 21.8605 20.3539 21.7143C21.7939 20.2743 22.5882 18.3595 22.5882 16.3225C22.5882 14.2863 21.7939 12.3715 20.3539 10.9315C20.0607 10.6383 19.5867 10.6383 19.2934 10.9315ZM6.01908 13.2944C6.31233 13.0011 6.78633 13.0011 7.07958 13.2944C7.37283 13.5876 7.37283 14.0616 7.07958 14.3549C5.99508 15.4401 5.99508 17.2056 7.07958 18.2909C7.37283 18.5841 7.37283 19.0589 7.07958 19.3514C6.93333 19.4976 6.74133 19.5711 6.54933 19.5711C6.35733 19.5711 6.16533 19.4976 6.01908 19.3514C4.34883 17.6819 4.34883 14.9646 6.01908 13.2944ZM2.88055 16.3229C2.88055 14.6864 3.51805 13.1489 4.6753 11.9924C4.9678 11.6992 4.9678 11.2244 4.6753 10.9319C4.38205 10.6387 3.9073 10.6387 3.6148 10.9319C2.1748 12.3712 1.38055 14.2859 1.38055 16.3229C1.38055 18.3599 2.1748 20.2747 3.6148 21.7139C3.76105 21.8609 3.95305 21.9337 4.14505 21.9337C4.3363 21.9337 4.5283 21.8609 4.6753 21.7139C4.9678 21.4214 4.9678 20.9467 4.6753 20.6534C3.51805 19.4969 2.88055 17.9594 2.88055 16.3229Z" fill="black"/>
</svg>

<svg width="24" height="24" viewBox="0 0 24 24" fill="none" xmlns="http://www.w3.org/2000/svg"><path fill-rule="evenodd" clip-rule="evenodd" d="M21.198 8.1h1.262V1.5h-1.262v6.6Zm-6.632-3.18a.74.74 0 0 1 .658.372.753.753 0 0 1-.001.758l-.557.945h5.032v-4.39H4.262v4.39h4.797l.57-.609-.247-1.24a.748.748 0 0 1 .322-.773l1.783-1.174a.752.752 0 0 1 1.14.446l.322 1.296 1.617-.022ZM1.5 8.1h1.262V1.5H1.5v6.6ZM20.91 0h1.838c.668 0 1.212.544 1.212 1.21v7.18c0 .667-.544 1.211-1.212 1.211H20.91a1.208 1.208 0 0 1-1.2-1.105h-6.354a.752.752 0 0 1-.646-1.13l.546-.928-.882.012c-.362-.024-.654-.23-.738-.57l-.21-.845-.475.314.223 1.123a.748.748 0 0 1-.187.66L9.932 8.257a.752.752 0 0 1-.549.237H4.251a1.209 1.209 0 0 1-1.2 1.105H1.21A1.213 1.213 0 0 1 0 8.388V1.21C0 .543.542 0 1.21 0h1.84a1.21 1.21 0 0 1 1.2 1.105h15.46A1.21 1.21 0 0 1 20.91 0ZM9.968 16.06c0 1.109.903 2.011 2.012 2.011 1.11 0 2.012-.902 2.012-2.011 0-.608-.796-2.143-2.012-3.906-1.234 1.785-2.012 3.29-2.012 3.906Zm-1.5 0c0-1.31 1.426-3.576 2.622-5.248.412-.573 1.37-.57 1.78 0 1.195 1.67 2.622 3.936 2.622 5.248a3.516 3.516 0 0 1-3.512 3.511 3.516 3.516 0 0 1-3.512-3.511Zm8.42-2.766a.75.75 0 0 1 1.061 0 4.287 4.287 0 0 1 0 6.057.748.748 0 0 1-1.06 0 .75.75 0 0 1 0-1.06 2.788 2.788 0 0 0 0-3.936.75.75 0 0 1 0-1.06Zm2.405-2.363a.75.75 0 0 0 0 1.061 6.083 6.083 0 0 1 1.795 4.33 6.083 6.083 0 0 1-1.795 4.332.75.75 0 1 0 1.06 1.06 7.576 7.576 0 0 0 2.235-5.391 7.576 7.576 0 0 0-2.234-5.392.75.75 0 0 0-1.06 0ZM6.02 13.294a.75.75 0 1 1 1.06 1.06 2.788 2.788 0 0 0 0 3.937.75.75 0 1 1-1.06 1.06 4.287 4.287 0 0 1 0-6.057Zm-3.138 3.029c0-1.637.637-3.174 1.794-4.33a.75.75 0 0 0-1.06-1.061 7.573 7.573 0 0 0-2.234 5.39c0 2.038.794 3.953 2.234 5.392a.747.747 0 0 0 1.06 0 .75.75 0 0 0 0-1.06 6.081 6.081 0 0 1-1.794-4.331Z" fill="currentColor"/></svg>
